X: 10082
T: DUNCAN DAVIDSON.     a Strathspey.
R: strathspey
B: "Edinburgh Repository of Music" v.1 p.8 #2
F: http://digital.nls.uk/special-collections-of-printed-music/pageturner.cfm?id=87776133
Z: 2015 John Chambers <jc:trillian.mit.edu>
M: C|
L: 1/8
K: D
F |\
D/D/D A>B A>FAB | D/D/D d>B A>FEF |\
D/D/D A>B A>FA>g | f>def d/d/d d :|
|: g |\
f>d de/f/ g>fed | c>Ae>A f>Ae>g |\
f>d de/f/ g>fe>d | c>def d/d/d d :|
